X:1
T:Les 180 pucelles
L:1/8
Q:110
M:4/4
K:G
E>A B>c B3 A/B/ | c2 B>A B4 |
E>A B>c B2B>c | B>A G>B F2 E>c |
B>A G>B F2 E2
E>A B>c B3 A/B/ | c2 B>A B4 |
E>A B>c B2B>c | B>A G>B F2 E>c |
B>A G>B F2 E